src/icons/svgs/16/filter.svg

<svg width="16" height="16" viewBox="0 0 16 16" fill="none" xmlns="http://www.w3.org/2000/svg">
<path d="M13.8355 4.16491L9.50566 9.13371V12.4639C9.50566 12.8996 8.99035 13.1492 8.62023 12.9028L6.74382 11.6533C6.59253 11.5533 6.5034 11.3881 6.5034 11.214V9.13371L2.17299 4.16491C1.76628 3.69819 2.12228 3 2.76699 3H13.2421C13.8871 3 14.2225 3.69819 13.8355 4.16491Z" fill="black"/>
</svg>

<svg width="16" height="16" viewBox="0 0 16 16" xmlns="http://www.w3.org/2000/svg">
    <path d="m13.835 4.165-4.33 4.969v3.33c0 .436-.515.685-.885.439l-1.876-1.25a.528.528 0 0 1-.24-.439v-2.08l-4.331-4.97C1.766 3.699 2.123 3 2.767 3h10.475c.645 0 .98.698.593 1.165Z"/>
</svg>
